!! 00000] TT[WS
!!!OTL: Dieduan qiao
!!!ARE: Asia, China,ÿShanxi Zuoquan
!! Ethnic Group: Han
!! WI, 96
!!!SCT: J0115
!!!YEM: Copyright 1995, estate of Helmut Schaffrath.
**kern
*ICvox
*Ivox
*M2/4
*k[f#]
*G:
{4a
4a
=1
8b
8a
8g
8e
=2
4.a
8b
=3
4.a
8r}
=4
{4dd
8ee
8dd
=5
8cc
8b
8dd
8b
=6
4a
8a
8b
=7
8a
8g
4e
=8
4g
4g
=9
8a
8g
8a
8b
=10
4.g
8a
=11
4g
4r}
=12
{8ee
8gg
8ee
8dd
=13
4cc
4dd
=14
8ee
8gg
8ee
8dd
=15
8cc
8b
8dd
8b}
=16
{4a
8a
8b
=17
8a
8g
4e
=18
4g
4g
=19
8e
8g
8e
8g
=20
4a
4r}
=21
{8b
8dd
8b
8a
=22
8g
8a
4b
=23
8dd
8b
8a
8g
=24
4.e
8g
=25
8e
8d
4B
=26
4d
4d}
=27
{8e
8d
8e
8g
=28
4.d
8e
=29
2d}
==
!!!AGN: Xiaodiao. Qingge, Aisu
!!!ONB: ESAC (Essen Associative Code) Database: CHINA
!!!AMT: simple duple
!!!AIN: vox
!!!EED: Helmut Schaffrath
!!!EEV: 1.0
*-
